X: 380
T: Opera Reel
%R: reel
Z: 2014 John Chambers <jc:trillian.mit.edu>
B: Preston "Twenty four Country Dances for the Year 1800" p.170 #2
F: http://www.vwml.org/browse/browse-collections-dance-tune-books/browse-prestons1800# 2014-8-10
M: C|
L: 1/8
K: F
|:\
CFFG A>GFA | DGGA B>ABc |\
dfcA GFGA | C<FE>G F2F2 :|
|:\
f<cc>A fcfa | fcfa gfga |\
fdcA dbag | f<dc>A G2G2 :|
% - - - - - - - - - - - - - - - - - - - - - - - - -
%%begintext align
%% Set & change sides .| Set & change sides
%% back again :| lead down two Cu: :|. lead up to
%% the top & cast off :|:
%%endtext
% - - - - - - - - - - - - - - - - - - - - - - - - -

%%sep 1 1 500
%%sep 1 1 500
